power-plug-outline.svg

<svg fill="currentColor" viewBox="0 0 24 24"><path d="M16 7V3h-2v4h-4V3H8v4C7 7 6 8 6 9v5.5L9.5 18v3h5v-3l3.5-3.5V9c0-1-1-2-2-2m0 6.67-2.91 2.92-.42.41h-1.34l-.41-.41L8 13.67V9.09c0-.03.06-.09.09-.09h7.83c.03 0 .08.06.08.09z"/></svg>

<svg  viewBox="0 0 24 24" fill="currentColor"><path  d="M16 7V3H14V7H10V3H8V7C7 7 6 8 6 9V14.5L9.5 18V21H14.5V18L18 14.5V9C18 8 17 7 16 7M16 13.67L13.09 16.59L12.67 17H11.33L10.92 16.59L8 13.67V9.09C8 9.06 8.06 9 8.09 9H15.92C15.95 9 16 9.06 16 9.09V13.67Z"/></svg>
